dist/icons/activities/5.svg

<svg width="40" height="40" viewBox="0 0 40 40" fill="none" xmlns="http://www.w3.org/2000/svg">
<path d="M33.036 0H6.964L0 11.142V40H40V11.142L33.036 0ZM38.1307 10.6667H20.6667V1.33333H32.2973L38.1307 10.6667ZM7.70267 1.33333H19.3333V10.6667H1.86933L7.70267 1.33333ZM1.33333 38.6667V12H38.6667V38.6667H1.33333Z" fill="#DEC377"/>
<path d="M24 15.3333H16C14.8973 15.3333 14 16.2306 14 17.3333C14 18.4359 14.8973 19.3333 16 19.3333H24C25.1027 19.3333 26 18.4359 26 17.3333C26 16.2306 25.1027 15.3333 24 15.3333ZM24 17.9999H16C15.6327 17.9999 15.3333 17.7013 15.3333 17.3333C15.3333 16.9653 15.6327 16.6666 16 16.6666H24C24.3673 16.6666 24.6667 16.9653 24.6667 17.3333C24.6667 17.7013 24.3673 17.9999 24 17.9999Z" fill="#DEC377"/>
<path d="M25.3333 34.6667H14.6667C14.2987 34.6667 14 34.9647 14 35.3334C14 35.7021 14.2987 36.0001 14.6667 36.0001H25.3333C25.7013 36.0001 26 35.7021 26 35.3334C26 34.9647 25.7013 34.6667 25.3333 34.6667Z" fill="#DEC377"/>
<path d="M16.6666 26.0008C17.0346 26.0008 17.3333 26.2988 17.3333 26.6674V31.0581L18.1953 30.1961C18.3253 30.0661 18.4959 30.0008 18.6666 30.0008C18.8373 30.0008 19.0079 30.0661 19.1379 30.1961C19.3986 30.4568 19.3986 30.8781 19.1379 31.1388L17.1386 33.1381C17.0773 33.2001 17.0033 33.2488 16.9213 33.2828C16.7586 33.3501 16.5746 33.3501 16.4119 33.2828C16.3299 33.2488 16.2566 33.2001 16.1946 33.1381L14.1953 31.1388C13.9346 30.8781 13.9346 30.4568 14.1953 30.1961C14.3253 30.0661 14.4959 30.0008 14.6666 30.0008C14.8373 30.0008 15.0079 30.0661 15.1379 30.1961L15.9999 31.0581V26.6674C15.9999 26.2988 16.2986 26.0008 16.6666 26.0008Z" fill="#DEC377"/>
<path d="M23.8053 33.1381C23.744 33.2001 23.67 33.2488 23.588 33.2828C23.4253 33.3501 23.2413 33.3501 23.0787 33.2828C22.9967 33.2488 22.9233 33.2001 22.8613 33.1381L20.862 31.1388C20.6013 30.8781 20.6013 30.4568 20.862 30.1961C20.992 30.0661 21.1627 30.0008 21.3333 30.0008C21.504 30.0008 21.6747 30.0661 21.8047 30.1961L22.6667 31.0581V26.6674C22.6667 26.2988 22.9653 26.0008 23.3333 26.0008C23.7013 26.0008 24 26.2988 24 26.6674V31.0581L24.862 30.1961C24.992 30.0661 25.1627 30.0008 25.3333 30.0008C25.504 30.0008 25.6747 30.0661 25.8047 30.1961C26.0653 30.4568 26.0653 30.8781 25.8047 31.1388L23.8053 33.1381Z" fill="#DEC377"/>
</svg>

<svg width="40" height="40" fill="none" xmlns="http://www.w3.org/2000/svg"><path d="M33.036 0H6.964L0 11.142V40h40V11.142L33.036 0zm5.095 10.667H20.667V1.333h11.63l5.834 9.334zM7.703 1.333h11.63v9.334H1.87l5.834-9.334zm-6.37 37.334V12h37.334v26.667H1.333z" fill="#DEC377"/><path d="M24 15.333h-8c-1.103 0-2 .898-2 2 0 1.103.897 2 2 2h8c1.103 0 2-.897 2-2 0-1.102-.897-2-2-2zM24 18h-8a.667.667 0 010-1.333h8A.667.667 0 0124 18zm1.333 16.667H14.667a.667.667 0 100 1.333h10.666a.667.667 0 100-1.333zM16.667 26c.368 0 .666.299.666.667v4.391l.862-.862a.665.665 0 01.943 0c.26.26.26.682 0 .943l-2 2a.668.668 0 01-.944 0l-1.999-2a.666.666 0 11.943-.943l.862.862v-4.39c0-.37.299-.667.667-.667zm7.138 7.138a.668.668 0 01-.944 0l-1.999-2a.666.666 0 11.943-.942l.862.862v-4.39a.666.666 0 111.333 0v4.39l.862-.862a.665.665 0 01.943 0c.26.26.26.682 0 .943l-2 2z" fill="#DEC377"/></svg>
